packages/foundations/assets/icons/functional/images/social/thumbs_up_12.svg

<svg width="12" height="12" viewBox="0 0 12 12" fill="none" xmlns="http://www.w3.org/2000/svg">
<g clip-path="url(#clip0_232_455)">
<path fill-rule="evenodd" clip-rule="evenodd" d="M8.10601 4.19935C8.20261 3.91735 8.29321 3.59095 8.34121 3.25435C8.41681 2.72515 8.29141 2.22295 7.98601 1.84075C7.69321 1.47295 7.26121 1.24015 6.76201 1.19995C5.79301 1.21075 5.47801 2.20495 5.34961 2.61535C5.04001 3.46375 4.57501 3.91255 4.19101 4.15435C4.16701 3.84475 3.91561 3.59875 3.60001 3.59875H1.80001C1.46881 3.59875 1.20001 3.86695 1.20001 4.19875V9.59995C1.20001 9.93175 1.46881 10.2 1.80001 10.2H3.60001C3.86521 10.2 4.08301 10.0254 4.16221 9.78655C5.22601 10.233 6.67921 10.8 7.20001 10.8C8.94961 10.8 10.8 8.64115 10.8 6.59995C10.8 5.94355 10.8 4.19995 9.00001 4.19995L8.10601 4.19935ZM2.40001 8.99935V4.79875H3.00001V8.88295V8.99935H2.40001ZM4.20001 8.49655V5.47915C4.83961 5.24395 5.89441 4.62115 6.48601 2.99995C6.61741 2.58115 6.70741 2.44735 6.75181 2.40415C6.84661 2.42395 6.96181 2.47975 7.04761 2.58775C7.14721 2.71255 7.18261 2.87935 7.15321 3.08395C7.05001 3.80395 6.67561 4.50715 6.67141 4.51435C6.57121 4.70035 6.57661 4.92595 6.68461 5.10655C6.79261 5.28715 6.98821 5.39875 7.19941 5.39875H8.99941C9.34801 5.39875 9.59941 5.39875 9.59941 6.59875C9.59941 8.08675 8.20321 9.59875 7.20361 9.59875C6.88801 9.58375 5.47021 9.04135 4.20001 8.49655Z" fill="#1A1C1F"/>
</g>
<defs>
<clipPath id="clip0_232_455">
<rect width="12" height="12" fill="white"/>
</clipPath>
</defs>
</svg>

<svg xmlns="http://www.w3.org/2000/svg" width="12" height="12" fill="none"><g clip-path="url(#a)"><path fill="#1A1C1F" fill-rule="evenodd" d="M8.106 4.2c.097-.283.187-.61.235-.946.076-.529-.05-1.031-.355-1.413A1.72 1.72 0 0 0 6.762 1.2c-.969.01-1.284 1.005-1.412 1.415-.31.849-.775 1.298-1.159 1.54a.595.595 0 0 0-.591-.556H1.8a.6.6 0 0 0-.6.6v5.4a.6.6 0 0 0 .6.601h1.8a.59.59 0 0 0 .562-.413C5.226 10.233 6.68 10.8 7.2 10.8c1.75 0 3.6-2.159 3.6-4.2 0-.656 0-2.4-1.8-2.4zM2.4 9V4.798H3v4.2zm1.8-.503V5.479C4.84 5.244 5.894 4.621 6.486 3c.131-.419.221-.553.266-.596.095.02.21.076.296.184q.15.188.105.496c-.103.72-.477 1.423-.482 1.43A.6.6 0 0 0 7.2 5.4H9c.349 0 .6 0 .6 1.2 0 1.488-1.396 3-2.395 3C6.888 9.584 5.47 9.04 4.2 8.497" clip-rule="evenodd"/></g><defs><clipPath id="a"><path fill="#fff" d="M0 0h12v12H0z"/></clipPath></defs></svg>
